resources/haticons/SVG/bluetooth_connected.svg

<!-- Generated by IcoMoon.io -->
<svg version="1.1" xmlns="http://www.w3.org/2000/svg" width="24" height="24" viewBox="0 0 24 24">
<title>bluetooth_connected</title>
<path d="M18.984 9.984l2.016 2.016-2.016 2.016-1.969-2.016zM14.859 16.313l-1.875-1.922v3.797zM12.984 5.813v3.797l1.875-1.922zM17.719 7.688l-4.313 4.313 4.313 4.313-5.719 5.672h-0.984v-7.594l-4.594 4.594-1.406-1.406 5.578-5.578-5.578-5.578 1.406-1.406 4.594 4.594v-7.594h0.984zM6.984 12l-1.969 2.016-2.016-2.016 2.016-2.016z"></path>
</svg>

<svg xmlns="http://www.w3.org/2000/svg" width="24" height="24"><path d="M18.984 9.984L21 12l-2.016 2.016L17.015 12zm-4.125 6.329l-1.875-1.922v3.797zm-1.875-10.5V9.61l1.875-1.922zm4.735 1.875l-4.313 4.313 4.313 4.313L12 21.986h-.984v-7.594l-4.594 4.594-1.406-1.406 5.578-5.578-5.578-5.578 1.406-1.406 4.594 4.594V2.018H12zM6.984 12l-1.969 2.016L2.999 12l2.016-2.016z"/></svg>
